src/pages/homepage/images/logo-stroke.svg

<svg xmlns="http://www.w3.org/2000/svg" width="1200" height="1300" fill="none"><path stroke="#3D3D3D" stroke-opacity=".6" stroke-width="2" d="m464.284 485.488.074.057-.825-2.909a195.4 195.4 0 0 0-62.078-96.115 194.5 194.5 0 0 0-105.136-44.66 194.12 194.12 0 0 0-112.037 22.154 195.1 195.1 0 0 0-80.373 81.346c-18.103 34.568-25.435 73.752-21.095 112.548a195.5 195.5 0 0 0 45.454 105.042c25.27 29.664 58.853 51.061 96.373 61.401a194.26 194.26 0 0 0 113.708-3.228l.255.139.393-.112 89.15-25.449a89.93 89.93 0 0 1 68.531 7.969 90.36 90.36 0 0 1 42.84 54.244l28.068 98.911a195.24 195.24 0 0 0 60.141 94.455 194.38 194.38 0 0 0 102.014 45.711 194.1 194.1 0 0 0 110.27-18.092c34.216-16.698 62.772-43.1 82.199-75.922 19.427-32.825 28.816-70.642 27.041-108.758a195.64 195.64 0 0 0-37.026-105.731c-22.366-30.846-53.279-54.462-88.902-67.879a193.86 193.86 0 0 0-111.134-7.751l-.055-.027-.347-.172-.372.106-108.484 30.963a89.94 89.94 0 0 1-68.531-7.969 90.36 90.36 0 0 1-42.84-54.245l-25.787-90.902-.117-.413-.186-.098a194 194 0 0 0-1.186-4.614Zm418.468-162.312c84.404-40.415 120.168-141.813 79.887-226.461-40.284-84.65-141.378-120.52-225.783-80.104-84.403 40.415-120.17 141.813-79.886 226.462 40.284 84.65 141.377 120.519 225.782 80.103ZM1134.02 663.55c57.35-27.464 81.65-96.357 54.28-153.88-27.38-57.524-96.06-81.895-153.42-54.43s-81.659 96.357-54.284 153.88c27.374 57.524 96.064 81.895 153.424 54.43Zm-855.458 617.16c97.029-46.46 138.137-163 91.827-260.31-46.31-97.318-162.5-138.542-259.53-92.081S-27.278 1091.32 19.031 1188.63c46.31 97.31 162.5 138.54 259.531 92.08Z"/></svg>

<svg width="1200" height="1300" viewBox="0 0 1200 1300" fill="none" xmlns="http://www.w3.org/2000/svg">
<path d="M464.284 485.488L464.358 485.545L463.533 482.636C452.881 445.085 431.247 411.616 401.455 386.521L401.455 386.521C371.642 361.437 335.028 345.882 296.319 341.861C257.59 337.851 218.573 345.556 184.282 364.015C149.992 382.473 121.99 410.804 103.909 445.361C85.8065 479.929 78.4744 519.113 82.8142 557.909C87.1538 596.706 102.999 633.287 128.268 662.951C153.538 692.615 187.121 714.012 224.641 724.352C262.02 734.652 301.612 733.516 338.349 721.124L338.604 721.263L338.997 721.151L428.147 695.702C451.148 689.136 475.799 692.016 496.678 703.671C517.567 715.347 532.974 734.843 539.518 757.915L567.586 856.826C577.99 893.529 598.91 926.373 627.727 951.281C656.544 976.189 692.016 992.082 729.741 996.992C767.465 1001.9 805.804 995.618 840.011 978.9C874.227 962.202 902.783 935.8 922.21 902.978C941.637 870.153 951.026 832.336 949.251 794.22C947.476 756.103 934.601 719.355 912.225 688.489C889.859 657.643 858.946 634.027 823.323 620.61C787.822 607.203 749.189 604.518 712.189 612.859L712.134 612.832L711.787 612.66L711.415 612.766L602.931 643.729C579.929 650.294 555.279 647.415 534.4 635.76C513.51 624.084 498.104 604.587 491.56 581.515L465.773 490.613L465.656 490.2L465.47 490.102C465.096 488.561 464.697 487.024 464.284 485.488ZM882.752 323.176C967.156 282.761 1002.92 181.363 962.639 96.7145C922.355 12.0644 821.261 -23.805 736.856 16.6109C652.453 57.026 616.686 158.424 656.97 243.073C697.254 327.723 798.347 363.592 882.752 323.176ZM1134.02 663.55C1191.37 636.086 1215.67 567.193 1188.3 509.67C1160.92 452.146 1092.24 427.775 1034.88 455.24C977.521 482.705 953.221 551.597 980.596 609.12C1007.97 666.644 1076.66 691.015 1134.02 663.55ZM278.562 1280.71C375.591 1234.25 416.699 1117.71 370.389 1020.4C324.079 923.082 207.889 881.858 110.859 928.319C13.8295 974.779 -27.2785 1091.32 19.0308 1188.63C65.3412 1285.94 181.531 1327.17 278.562 1280.71Z" stroke="#3D3D3D" stroke-opacity="0.6" stroke-width="2"/>
</svg>
